svg/adventures.svg

<svg xmlns="http://www.w3.org/2000/svg" viewBox="0 0 32 32" enable-background="new 0 0 32 32"><path d="M 16 3 C 8.8321429 3 3 8.8321429 3 16 C 3 23.167857 8.8321429 29 16 29 C 23.167857 29 29 23.167857 29 16 C 29 8.8321429 23.167857 3 16 3 z M 14.875 5.0625 C 14.916024 5.0583495 14.958843 5.0662007 15 5.0625 L 15 6 L 17 6 L 17 5.0625 C 22.284136 5.5376347 26.462365 9.7158645 26.9375 15 L 26 15 L 26 17 L 26.9375 17 C 26.462365 22.284136 22.284136 26.462365 17 26.9375 L 17 26 L 15 26 L 15 26.9375 C 9.7158645 26.462365 5.5376347 22.284136 5.0625 17 L 6 17 L 6 15 L 5.0625 15 C 5.5339339 9.7570218 9.6490529 5.5912324 14.875 5.0625 z M 22.09375 9.90625 L 13.59375 13.59375 L 9.90625 22.09375 L 18.40625 18.40625 L 22.09375 9.90625 z M 16 14.5 C 16.8 14.5 17.5 15.2 17.5 16 C 17.5 16.8 16.8 17.5 16 17.5 C 15.2 17.5 14.5 16.8 14.5 16 C 14.5 15.2 15.2 14.5 16 14.5 z" color="#000" overflow="visible" enable-background="accumulate"/></svg>

<svg xmlns="http://www.w3.org/2000/svg" viewBox="0 0 32 32"><path style="text-indent:0;text-align:start;line-height:normal;text-transform:none;block-progression:tb;-inkscape-font-specification:Bitstream Vera Sans" d="M16 3C8.832 3 3 8.832 3 16s5.832 13 13 13 13-5.832 13-13S23.168 3 16 3zm-1.125 2.063c.04-.005.084.003.125 0V6h2v-.938c5.284.476 9.462 4.654 9.938 9.938H26v2h.938c-.476 5.284-4.654 9.462-9.938 9.938V26h-2v.938C9.716 26.462 5.538 22.284 5.062 17H6v-2h-.938c.472-5.243 4.587-9.41 9.813-9.938zm7.22 4.843l-8.5 3.688-3.69 8.5 8.5-3.688 3.69-8.5zM16 14.5c.8 0 1.5.7 1.5 1.5s-.7 1.5-1.5 1.5-1.5-.7-1.5-1.5.7-1.5 1.5-1.5z" color="#000" overflow="visible" font-family="Bitstream Vera Sans"/></svg>
